X: 1
T: Cattle in the Cane
O: 1020s
R: reel
Z: 2010 John Chambers <jc:trillian.mit.edu>
M: C|
L: 1/8
K: Am
|: "Am"a2a2 A,3B, | CA,DC A,3B, | "C"CB,CD EDEG | AcBd cdeg |
|  "Am"a3g edcd eged cAGA | "C"cdeg edcA | "G"GEDC | "Am"A,4 :|
K: Amix
|: "A"e3f ecAc | efgf ecA=c | "G"BAG2- GAB=c | dBGA (3B=cB "A"A2 |
|  "A"e3f ecAc | egfa gdef | "G"gfed B2AG | EGAB "A"A4 :|
